!!!COA:	Josquin des Prez
!!!CDT:	~1450-1521/08/27
!!!OPR:	Missa Veni Sancte Spiritus
!!!ONM:	2
!!!OTL:	Gloria
!!!AGN:	Mass; Gloria
!!!SCT:	NJE 4.6
!!!SCA:	New Josquin Edition 4.6
!!!voices:	5
!!!voices-OPR:	5
**kern	**kern	**kern	**kern	**kern
*staff5	*staff4	*staff3	*staff2	*staff1
*Ivox	*Ivox	*Ivox	*Ivox	*Ivox
*I"Bassus	*I"Vagans	*I"Tenor	*I"Altus	*I"Superius
*I'B	*I'V	*I'T	*I'A	*I'S
*>[A,B]	*>[A,B]	*>[A,B]	*>[A,B]	*>[A,B]
*>A	*>A	*>A	*>A	*>A
*clefF4	*clefGv2	*clefGv2	*clefGv2	*clefG2
*k[]	*k[]	*k[]	*k[]	*k[]
*M2/1	*M2/1	*M2/1	*M2/1	*M2/1
*met(C|)	*met(C|)	*met(C|)	*met(C|)	*met(C|)
=1-	=1-	=1-	=1-	=1-
0r	0r	0r	1r	2.g/
.	.	.	.	4g/
.	.	.	2.c\	2g/
.	.	.	.	2g/
.	.	.	4c\	.
=2	=2	=2	=2	=2
0r	0r	0r	2c\	2e/
.	.	.	2c\	2e/
.	.	.	2A/	2f/
.	.	.	2A/	2f/
=3	=3	=3	=3	=3
0r	0r	0r	2B\	0d
.	.	.	2B\	.
.	.	.	1G	.
=4	=4	=4	=4	=4
0r	0r	0r	2r	1f
.	.	.	1d	.
.	.	.	.	2f/
.	.	.	2c\	[2a/
=5	=5	=5	=5	=5
0r	0r	0r	2B\	4a/]
.	.	.	.	4g/
.	.	.	2c\	1g
.	.	.	1A	.
.	.	.	.	2f#i/
=6	=6	=6	=6	=6
0r	2r	0r	1G	0g
.	2G/	.	.	.
.	2E/	.	2r	.
.	2C/	.	2c\	.
=7	=7	=7	=7	=7
0r	1G	0r	2d\	2r
.	.	.	2e\	2g/
.	2F/	.	2f\	2a/
.	2G/	.	2d\	2b\
=8	=8	=8	=8	=8
0r	2A/	0r	2c\	2cc\
.	2F/	.	2d\	2a/
.	2G/	.	2B\	2g/
.	2F/	.	2c\	2a/
=9	=9	=9	=9	=9
0r	2D/	0r	2d\	2f/
.	2E/	.	2B\	2g/
.	2F/	.	2.A/	2a/
.	2D/	.	.	2f/
.	.	.	4B\	.
=10	=10	=10	=10	=10
0r	2C/	0r	2c\	2e/
.	2D/	.	2A/	2f/
.	2E/	.	2G/	2g/
.	2C/	.	2c\	2e/
=11	=11	=11	=11	=11
0r	1G	0r	2d\	2d/
.	.	.	2e\	2g/
.	2F/	.	2f\	2a/
.	2E/	.	[2g\	2b\
=12	=12	=12	=12	=12
0r	1A	0r	4g\]	2.cc\
.	.	.	4f\	.
.	.	.	4f\	.
.	.	.	4e\	4b\
.	2.G/	.	2g\	[1b
.	.	.	2e\	.
.	4A/	.	.	.
=13	=13	=13	=13	=13
1r	4B\	2.G/	1d	1b]
.	4A/	.	.	.
.	4G/	.	.	.
.	4F/	4G/	.	.
2.C/	2E/	2G/	1r	1r
.	2E/	2G/	.	.
4C/	.	.	.	.
=14	=14	=14	=14	=14
2C/	2G/	2E/	0r	0r
2C/	2G/	2E/	.	.
2AA/	2A/	1F	.	.
2AA/	2A/	.	.	.
=15	=15	=15	=15	=15
2BB/	2G/	2D/	0r	0r
2AA/	2A/	1F	.	.
2.D\	2A/	.	.	.
.	2A/	2F/	.	.
4D\	.	.	.	.
=16	=16	=16	=16	=16
2D\	2A/	2F/	1r	0r
2D\	2A/	1F	.	.
2.D\	1F	.	2r	.
.	.	[2A/	2d\	.
4D\	.	.	.	.
=17	=17	=17	=17	=17
2C/	2r	4A/]	2e\	2r
.	.	4G/	.	.
2BB/	2D/	1G	2d\	2g/
1AA	2E/	.	2c\	2a/
.	2C/	2F#i/	2A/	2cc\
=18	=18	=18	=18	=18
1GG	1D	0G	1d	2b\
.	.	.	.	2.dd\
2r	1D	.	2r	.
.	.	.	.	4cc\
2GG/	.	.	2d\	4b\
.	.	.	.	4a/
=19	=19	=19	=19	=19
2C/	0r	0r	2e\	2g/
2AA/	.	.	2e\	2cc\
2BB/	.	.	2.d\	2b\
[2GG/	.	.	.	[2dd\
.	.	.	4c\	.
=20	=20	=20	=20	=20
2GG/]	0r	0r	2B\	2dd\]
2AA/	.	.	2.A/	2cc\
1E	.	.	.	2b\
.	.	.	4G/	.
.	.	.	[2G/	4a/
.	.	.	.	4g/
=21	=21	=21	=21	=21
1D	2r	0r	2G/]	1a
.	1d	.	2F#i/	.
2GG/	.	.	1G	1g
[2C/	2e\	.	.	.
=22	=22	=22	=22	=22
4C/]	1e	2r	2c\	1r
4D\	.	.	.	.
2E\	.	2G/	2B\	.
2C/	1e	2G/	1c	2r
2E\	.	2G/	.	2g/
=23	=23	=23	=23	=23
2D\	2r	2A/	2d\	2f/
2E\	2e\	2G/	2B\	2g/
2AA/	2e\	2.A/	2.c\	2.cc\
[2A\	2e\	.	.	.
.	.	4B\	4d\	4b\
=24	=24	=24	=24	=24
2A\]	1A	4c\	2e\	4a/
.	.	4B\	.	4g/
2F\	.	4A/	2.d\	1a
.	.	4G/	.	.
2D\	2r	2F/	.	.
.	.	.	8c#i\L	.
.	.	.	8B\J	.
2E\	2E/	2G/	2c#i\	[2g/
=25	=25	=25	=25	=25
1D	2.F/	1A	1d	2g/]
.	.	.	.	2f/
.	4D/	.	.	.
1GG	1D	1G	2r	1g
.	.	.	2d\	.
=26	=26	=26	=26	=26
0r	2.A/	0r	2e\	2.cc\
.	.	.	2e\	.
.	4A/	.	.	4cc\
.	2A/	.	2A/	2cc\
.	2A/	.	[2e\	2cc\
=27	=27	=27	=27	=27
0r	2G/	0r	2e\]	2b\
.	2F/	.	2.f\	1a
.	2D/	.	.	.
.	.	.	4e\	.
.	2F/	.	4d\	[2dd\
.	.	.	4c\	.
=28	=28	=28	=28	=28
0r	2G/	0r	2B\	2dd\]
.	2A/	.	2c\	2.cc\
.	1G	.	1d	.
.	.	.	.	4b\
.	.	.	.	4b\
.	.	.	.	4a/
=29	=29	=29	=29	=29
0C	1r	0G	1e	1cc
.	[1E	.	1e	1r
=30	=30	=30	=30	=30
0E	1E]	0G	1.g	1b
.	1C	.	.	1cc
.	.	.	[2g\	.
=31	=31	=31	=31	=31
0D	1F	0A	2g\]	0dd
.	.	.	4f\	.
.	.	.	4e\	.
.	1D	.	1f	.
=32	=32	=32	=32	=32
2.GG/	1D	[0G	0g	2.b\
4AA/	.	.	.	4cc\
2BB/	2r	.	.	2dd\
[2C/	2C/	.	.	[2ee\
=33	=33	=33	=33	=33
2C/]	2.E/	0G]	[0e	2ee\]
4BB/	.	.	.	4dd\
4AA/	4F/	.	.	4cc\
1E	1G	.	.	1b
=34	=34	=34	=34	=34
2r	1C	2r	0e]	0a
2AA/	.	2A/	.	.
2AA/	2C/	2.c\	.	.
2AA/	[2E/	.	.	.
.	.	4B\	.	.
=35	=35	=35	=35	=35
2C/	2E/]	2A/	1r	1r
2BB/	1D	1G	.	.
1AA	.	.	2r	2r
.	2C/	2F#i/	2c\	2a/
=36	=36	=36	=36	=36
2GG/	2D/	1G	2B\	2b\
1C	2E/	.	1e	2g/
.	2C/	2r	.	2a/
2BB/	2D/	[2G/	2d\	[2b\
=37	=37	=37	=37	=37
1E	1E	2G/]	2B\	4b\]
.	.	.	.	4a/
.	.	2G/	2c\	1g
1D	1F	1A	1d	.
.	.	.	.	2f#i/
=38	=38	=38	=38	=38
2r	1E	1G	2.B\	1g
2E\	.	.	.	.
.	.	.	4c\	.
2D\	1r	2F/	2d\	1r
2C/	.	2E/	2e\	.
=39	=39	=39	=39	=39
1D	0r	1F	2A/	0r
.	.	.	1d	.
1E	.	1G	.	.
.	.	.	2c#i\	.
=40	=40	=40	=40	=40
0D	2r	0F	2d\	1a
.	2A/	.	1f	.
.	2.A/	.	.	2a/
.	.	.	2e\	2a/
.	4B\	.	.	.
=41	=41	=41	=41	=41
0r	2c\	0r	2e\	2g/
.	1C	.	2e\	1g
.	.	.	4c\	.
.	.	.	4B\	.
.	2F/	.	4c\	2a/
.	.	.	4d\	.
=42	=42	=42	=42	=42
0r	2E/	0r	2e\	2g/
.	2F/	.	2.c\	1a
.	1D	.	.	.
.	.	.	8B/L	.
.	.	.	8A/J	.
.	.	.	2B\	4g/
.	.	.	.	4f/
=43	=43	=43	=43	=43
1C	0G	0r	1c	0e
1C	.	.	2r	.
.	.	.	2c\	.
=44	=44	=44	=44	=44
1D	0r	2.F/	2.A/	0r
.	.	4F/	4B\	.
1D	.	2F/	2A/	.
.	.	2F/	[2d\	.
=45	=45	=45	=45	=45
1E	0r	1G	2d\]	1r
.	.	.	2c#i\	.
1D	.	1A	1d	2r
.	.	.	.	2f/
=46	=46	=46	=46	=46
0r	0r	0r	2G/	2e/
.	.	.	2.d\	2.f/
.	.	.	4c\	4e/
.	.	.	[2c\	4d/
.	.	.	.	4c/
=47	=47	=47	=47	=47
2r	0r	0r	2c\]	1d
2G\	.	.	2B\	.
2.A\	.	.	2c\	2c/
.	.	.	2c\	2cc\
4F\	.	.	.	.
=48	=48	=48	=48	=48
2F\	0r	0r	2f\	2a/
2G\	.	.	2d\	2b\
2A\	.	.	2c\	2cc\
2F\	.	.	2d\	2a/
=49	=49	=49	=49	=49
2E\	1.G	1.c	1e	1g
1C	.	.	.	.
.	.	.	[1e	[1g
2C/	2G/	2c\	.	.
=50	=50	=50	=50	=50
[0C	0G	0c	2e\]	2g/]
.	.	.	2e\	2g/
.	.	.	[1e	[1g
=51	=51	=51	=51	=51
1C]	1.E	1.c	1e]	1g]
[1AA	.	.	[1e	[1a
.	2E/	2c\	.	.
=52	=52	=52	=52	=52
2AA/]	1E	2c\	2e\]	2a/]
2AA/	.	2c\	2e\	2a/
2C/	1E	1c	2e\	2g/
2C/	.	.	2e\	2g/
=53	=53	=53	=53	=53
1AA	2C/	1c	1f	1a
.	2c\	.	.	.
1GG	1d	1B	2g\	1b
.	.	.	[2g\	.
=54	=54	=54	=54	=54
1C	1e	0A	2g\]	1cc
.	.	.	4f#i\	.
.	.	.	4e\	.
1D	1d	.	1f#i	1a
=55	=55	=55	=55	=55
0GGl	0dl	0Gl	0gl	0bl
!!LO:LB:i:g=z
=56||	=56||	=56||	=56||	=56||
*>B	*>B	*>B	*>B	*>B
*clefF4	*clefGv2	*clefGv2	*clefGv2	*clefG2
*k[]	*k[]	*k[]	*k[]	*k[]
*M2/1	*M2/1	*M2/1	*M2/1	*M2/1
*met(C|)	*met(C|)	*met(C|)	*met(C|)	*met(C|)
!!section: Qui sedes
!!!OMD: Qui sedes
1GG	1G	1G	1d	1g
2GG/	2G/	2G/	2d\	2g/
[2C/	[2E/	[2G/	[2e\	[2g/
=57	=57	=57	=57	=57
2C/]	2E/]	2G/]	2e\]	2g/]
2C/	2E/	2c\	2e\	2g/
2E\	4G/	2B\	2e\	2g/
.	4F/	.	.	.
2E\	4E/	[2c\	2e\	2g/
.	4D/	.	.	.
=58	=58	=58	=58	=58
1AA	2C/	4c\]	1e	1a
.	.	4B\	.	.
.	2c\	4A/	.	.
.	.	4G/	.	.
1D	2A/	2F#i/	1d	1a
.	[2d\	2F#i/	.	.
=59	=59	=59	=59	=59
2GG/	2d\]	1G	1B	0g
1G	2.d\	.	.	.
.	.	1B	1r	.
.	4c\	.	.	.
2G\	4B\	.	.	.
.	4A/	.	.	.
=60	=60	=60	=60	=60
1G	1G	1B	1d	1r
1D	2d\	1A	[1f	1a
.	2d\	.	.	.
=61	=61	=61	=61	=61
1AA	2c\	0A	2f\]	0cc
.	2A/	.	4e\	.
.	.	.	4d\	.
1AA	2.c\	.	2e\	.
.	.	.	[2c\	.
.	4d\	.	.	.
=62	=62	=62	=62	=62
0r	1e	1c	4c\]	1g
.	.	.	4d\	.
.	.	.	4e\	.
.	.	.	4f\	.
.	1r	2B\	2g\	2g/
.	.	[2A/	[2f\	[2a/
=63	=63	=63	=63	=63
0r	0r	2A/]	2f\]	2a/]
.	.	1d	4e\	4g/
.	.	.	4d\	4f/
.	.	.	1e	1g
.	.	2c#i\	.	.
=64	=64	=64	=64	=64
2.D\	2.A/	2.d\	1f	0f
4D\	4A/	4c\	.	.
2D\	2d\	4B\	1r	.
.	.	4A/	.	.
2D\	2d\	[2A/	.	.
=65	=65	=65	=65	=65
2F\	2d\	2A/]	2r	1r
2E\	2c\	2G/	1c	.
2F\	1f	1A	.	2r
2D\	.	.	2d\	2f/
=66	=66	=66	=66	=66
1C	2e\	0r	2e\	2g/
.	2E/	.	2c\	1a
1r	2F/	.	2d\	.
.	2E/	.	2e\	2g/
=67	=67	=67	=67	=67
0r	2.D/	0r	2.f\	2f/
.	.	.	.	1a
.	4E/	.	4e\	.
.	2F/	.	4d\	.
.	.	.	4c\	.
.	2G/	.	[2e\	2g/
=68	=68	=68	=68	=68
1r	2A/	0r	4e\]	2f/
.	.	.	4d\	.
.	2B-\	.	1d	4e/
.	.	.	.	4d/
2r	1A	.	.	1e
2AA/	.	.	2c#i\	.
=69	=69	=69	=69	=69
2.D\	1F	2r	1d	0d
.	.	2A/	.	.
4C/	.	.	.	.
4BB/	2D/	2.d\	1r	.
4AA/	.	.	.	.
[2GG/	[2G/	.	.	.
.	.	4c\	.	.
=70	=70	=70	=70	=70
2GG/]	4G/]	4B\	0r	0r
.	4F/	4A/	.	.
2.C/	4E/	2G/	.	.
.	4D/	.	.	.
.	2C/	2A/	.	.
4BB/	.	.	.	.
2GG/	2G/	2B\	.	.
=71	=71	=71	=71	=71
2AA/	2F/	2c\	0r	0r
2BB/	2D/	2.d\	.	.
1AA	1E	.	.	.
.	.	4c#i\	.	.
.	.	4c#i\	.	.
.	.	4B\	.	.
=72	=72	=72	=72	=72
1r	1D	1d	1r	0f
1D	1r	1A	1d	.
=73	=73	=73	=73	=73
1GG	1G	1B	1d	1g
1C	[1E	[1c	1e	1g
=74	=74	=74	=74	=74
1AA	2E/]	1c]	1e	1a
.	2E/	.	.	.
1D	1D	1d	1f	[1a
=75	=75	=75	=75	=75
1E	1G	1B	0e	2a/]
.	.	.	.	2g/
1E	1E	1B	.	1g
=76	=76	=76	=76	=76
0AA	1E	0A	0e	1a
.	1r	.	.	[1cc
=77	=77	=77	=77	=77
0E	0G	1r	0e	1cc]
.	.	1G	.	1b
=78	=78	=78	=78	=78
0AA	1A	0c	0e	[0a
.	2E/	.	.	.
.	[2A/	.	.	.
=79	=79	=79	=79	=79
0D	4A/]	0d	1.f	0a]
.	4G/	.	.	.
.	4F#i/	.	.	.
.	4E/	.	.	.
.	1F#i	.	.	.
.	.	.	2d\	.
=80	=80	=80	=80	=80
*M3/1	*M3/1	*M3/1	*M3/1	*M3/1
*met(O|3)	*met(O|3)	*met(O|3)	*met(O|3)	*met(O|3)
0GG	0G	0B	0d	[0.g
1r	1r	1r	1B	.
=81	=81	=81	=81	=81
0C	1.G	0e	0c	0.g]
.	2A/	.	.	.
1BB	1B	1d	1d	.
=82	=82	=82	=82	=82
1AA	1.E	1c	0e	0.r
0E	.	1B	.	.
.	2F/	.	.	.
.	1G	1c	1e	.
=83	=83	=83	=83	=83
0D	0F	1.d	0A	0a
.	.	2c\	.	.
1GG	1G	1B	1d	1g
=84	=84	=84	=84	=84
1D	1.A	0.A	1d	1f
1AA	.	.	1c	1e
.	2G/	.	.	.
1D	1F	.	1d	1f
=85	=85	=85	=85	=85
0GG	1E	1r	1.B	0g
.	0D	1G	.	.
.	.	.	2c\	.
1GG	.	1B	1d	1r
=86	=86	=86	=86	=86
1C	1C	1c	0G	1g
2BB/	1G	1d	.	1b
2GG/	.	.	.	.
1AA	2E/	1c	1r	1cc
.	2C/	.	.	.
=87	=87	=87	=87	=87
0GG	0G	1.B	1G	0dd
.	.	.	1B	.
.	.	2G/	.	.
1r	1r	1A	1c	1cc
=88	=88	=88	=88	=88
1G	1G	1G	0d	1b
1F	1A	1D	.	1.a
1D	1F	1F	2B\	.
.	.	.	2c\	2g/
=89	=89	=89	=89	=89
1E	1E	1G	0.d	0g
0D	1F	0A	.	.
.	1D	.	.	1f#i
=90	=90	=90	=90	=90
*M2/1	*M2/1	*M2/1	*M2/1	*M2/1
*met(C|)	*met(C|)	*met(C|)	*met(C|)	*met(C|)
1GG	1D	1G	1B	0g
2.C/	1E	2G/	2r	.
.	.	2E/	[2c\	.
4BB/	.	.	.	.
=91	=91	=91	=91	=91
2AA/	2C/	2F/	2c\]	2r
2GG/	2D/	2G/	2B\	1g
2C/	2E/	1A	2c\	.
2D\	2D/	.	2A/	2f/
=92	=92	=92	=92	=92
2E\	1G	2r	2G/	2g/
2C/	.	2c\	1g	2e/
1D	1r	2B\	.	2d/
.	.	2A/	2f\	[2dd\
=93	=93	=93	=93	=93
2GG/	0r	2B\	2g\	2dd\]
2AA/	.	2c\	2e\	2cc\
2BB/	.	1G	2d\	2dd\
2GG/	.	.	2e\	2b\
=94	=94	=94	=94	=94
1D	1r	2r	2.f\	2.a/
.	.	1A	.	.
.	.	.	8e\L	4b\
.	.	.	8d\J	.
2r	2r	.	2c\	4cc\
.	.	.	.	4b\
2D\	2F/	2F/	[2d\	4a/
.	.	.	.	4g/
=95	=95	=95	=95	=95
2F\	2D/	2A/	2d\]	2f/
2E\	2E/	2G/	2c\	1g
1D	4F/	1A	1d	.
.	4E/	.	.	.
.	4D/	.	.	2f#i/
.	4C/	.	.	.
=96	=96	=96	=96	=96
0GGl	0Dl	0Gl	0dl	0gl
==	==	==	==	==
*-	*-	*-	*-	*-
!!!RDF**kern: l=long note in original notation
!!!RDF**kern: i=editorial accidental
!!!RDF**kern: V=start of tuplet marker
!!!RDF**kern: Z=end of tuplet marker
!!!ENC:	Will Watson 2011/05/05
!!!END:	2011/05/05/
!!!EED:	Jesse Rodin
!!!EEV:	2012/06/25/
!!attribution-level@Jos: 4 (questionable)
!!!ONB:	Translated from MusicXML and edited on 2012/06/25/ by Craig Sapp
!!muse2ps: T^@{OPR}^u^@{ONM}{. }@{OTL}^C^@{COA}?\n@{SCT}^i2I150v85,85,85,85,130Q16
